X: 10070
T: MISS NICOLSON'S WALTZ
C: Bob McQuillen 17 Sept 93
B: Bob's Note Book 10 #70
%R: waltz
Z: 2020 John Chambers <jc:trillian.mit.edu>
M: 3/4
L: 1/4
K: G	% and D
"^A"[|] d \
| "G"g>fe | dBd | "C"ec>e | "D"d2B/A/ | "Em"GBd | "A7"g2a | "D7"d3- | def |\
| "G"g>fe | dBd | "C"eg>e | "G"dBG | "C"EFG | "D7"A2B | "G"G3- | G2 :|
K: D
"^B"|: B \
| "D"A>BA | AFA | def "G"g2f/e/ | "D"f>ed | "G"B<dB | "D"A>GF | "A7"E2F/G/ |\
| "D"A>BA | AFA | dfa | "G"a2g | "D"f>ed | "A7"e2f | "D"d3- | d2 :|
%%text This tune ends on the "A" part, played once through.
%%begintext align
%% A wonderful group of Tom Anderson's
%% Shetland fiddle students and their piano accompanist (Hi Jim!) came to the States
%% this summer, on tour as Shetland's Young Heritage. I first heard them in Nelson, where
%% they were joined by Walt Michael and Company, and the music that night was out of
%% this world. It was a grand evening, and I could just tell that one of the group, Miss
%% Valerie Nicolson, badly needed a waltz! So here it is, Valerie, with much love from Bob.
%% "Will ye no come back again?" I sure hope so!
%%endtext

%%sep 1 1 500

%%sep 1 1 500

